Obsidian/actions/16s/color-picker-grey.svg

<svg height="16" viewBox="0 0 16 16" width="16" xmlns="http://www.w3.org/2000/svg"><path d="m8 1c-.20703.66364-.4867725 1.3110656-.7890625 1.9472656-1.5405 3.1502-3.9509938 5.3068219-4.1835937 7.2949224-.006.0297-.0221438.062196-.0273438.091796l.0195312.00586c-.0049999.0684-.0195312.136878-.0195312.205078 0 2.4602 2.2386 4.455078 5 4.455078s5-1.994878 5-4.455078c0-.0682-.014531-.136708-.019531-.205078l.019531-.00586c-.005-.0295-.021044-.062097-.027344-.091796-.23255-1.9882005-2.642994-4.1448224-4.1835935-7.2949224-.30228-.63622-.5820425-1.2836656-.7890625-1.9472656z" fill="#a9a9a9"/></svg>

<svg xmlns="http://www.w3.org/2000/svg" width="16" height="16" viewBox="0 0 16 16">
 <path style="fill:#a9a9a9" d="M 8 1 C 7.79297 1.66364 7.5132275 2.3110656 7.2109375 2.9472656 C 5.6704375 6.0974656 3.2599437 8.2540875 3.0273438 10.242188 C 3.0213438 10.271888 3.0052 10.304384 3 10.333984 L 3.0195312 10.339844 C 3.0145313 10.408244 3 10.476722 3 10.544922 C 3 13.005122 5.2386 15 8 15 C 10.7614 15 13 13.005122 13 10.544922 C 13 10.476722 12.985469 10.408214 12.980469 10.339844 L 13 10.333984 C 12.995 10.304484 12.978956 10.271887 12.972656 10.242188 C 12.740106 8.2539875 10.329662 6.0973656 8.7890625 2.9472656 C 8.4867825 2.3110456 8.20702 1.6636 8 1 z"/>
</svg>
